dist/images/icons/like.svg

<svg width="18" height="21" viewBox="0 0 18 21" fill="none" xmlns="http://www.w3.org/2000/svg">
<path fill-rule="evenodd" clip-rule="evenodd" d="M7.15451 1.95796C7.24834 0.708975 8.52882 -0.256819 9.90891 0.0611047L10.2857 0.149269C10.9541 0.304223 11.5474 0.7584 11.7466 1.43833C12.0642 2.52835 12.5161 4.79256 11.8361 7.46285C12.0487 7.43568 12.2619 7.41296 12.4756 7.39473C13.5049 7.3079 14.885 7.29855 16.1077 7.67525C16.8555 7.90634 17.5427 8.58494 17.8401 9.37574C18.1057 10.0864 18.0711 10.928 17.5023 11.6907C17.586 11.8497 17.651 12.014 17.7015 12.1756C17.8126 12.5363 17.8646 12.933 17.8646 13.3191C17.8646 13.7051 17.8126 14.1019 17.7015 14.4625C17.6452 14.6429 17.5716 14.8272 17.4705 15.0022C17.7145 15.5192 17.625 16.0962 17.4662 16.5357C17.3036 16.9697 17.0657 17.3762 16.7617 17.7393C16.8397 17.9423 16.8714 18.1561 16.8714 18.3604C16.8714 18.7679 16.7429 19.1953 16.5062 19.5787C16.024 20.3615 15.0669 21 13.7143 21V19.6642C14.527 19.6642 15.0149 19.3008 15.2531 18.9161C15.3614 18.7476 15.4215 18.5564 15.4278 18.3604C15.4278 18.2001 15.3773 18.14 15.3701 18.1333L14.859 17.6605L15.3686 17.1876C15.6602 16.9191 15.9562 16.505 16.0976 16.1136C16.2478 15.6968 16.1597 15.5245 16.0904 15.4617L15.5808 14.9888L16.0904 14.516C16.1525 14.4599 16.242 14.3289 16.3127 14.0952C16.382 13.8721 16.421 13.6009 16.421 13.3191C16.421 13.0372 16.382 12.766 16.3127 12.543C16.2406 12.3105 16.1525 12.1783 16.0904 12.1222L15.5808 11.6493L16.0904 11.1764C16.6 10.7062 16.6289 10.224 16.4759 9.81389C16.2997 9.34635 15.9042 9.02175 15.6516 8.94294C14.7089 8.65307 13.5627 8.64371 12.6056 8.72386C12.0745 8.76962 11.5471 8.84591 11.0263 8.95229L11.006 8.9563L11.0017 8.95763C10.8763 8.98645 10.7449 8.9836 10.6211 8.94938C10.4973 8.91515 10.3857 8.8508 10.2979 8.76305C10.2102 8.6753 10.1495 8.56736 10.1222 8.4505C10.0949 8.33365 10.102 8.21215 10.1428 8.0987C10.8692 6.0571 10.9419 3.86462 10.3521 1.78564C10.3088 1.63737 10.1673 1.49844 9.93634 1.44501L9.55811 1.35818C9.11637 1.25532 8.63132 1.56657 8.59523 2.05013C8.48696 3.49548 8.2502 4.92213 7.89941 5.85721C7.64822 6.52778 7.02891 7.55102 6.11223 8.49811C5.19265 9.44921 3.91939 10.3816 2.33864 10.7797C1.76986 10.9239 1.44361 11.3087 1.44361 11.648V16.9939C1.44361 17.3412 1.7612 17.6818 2.24192 17.7286C4.1085 17.9116 5.03674 18.4366 5.83794 18.8881L5.89568 18.9215C6.28546 19.1405 6.61027 19.3169 7.01592 19.4464C7.4158 19.5733 7.92539 19.6642 8.66163 19.6642H13.7143V21H8.66163C7.78825 21 7.11697 20.8918 6.54531 20.7088C6.05375 20.5427 5.58402 20.3258 5.14501 20.0623L5.07572 20.0222C4.34814 19.6121 3.63355 19.2087 2.09034 19.0577C0.984539 18.9482 0 18.1227 0 16.9926V11.6493C0 10.5139 0.98887 9.73641 1.95897 9.49196C3.18459 9.18205 4.23121 8.44067 5.03674 7.60846C5.84516 6.7709 6.35619 5.89862 6.53664 5.41906C6.82392 4.65096 7.05057 3.36324 7.15451 1.9593V1.95796Z" fill="black"/>
</svg>

<svg width="18" height="21" fill="none" xmlns="http://www.w3.org/2000/svg"><path fill-rule="evenodd" clip-rule="evenodd" d="M7.155 1.958C7.248.709 8.529-.257 9.909.061l.377.088c.668.155 1.261.61 1.46 1.29.318 1.09.77 3.354.09 6.024.213-.027.426-.05.64-.068 1.029-.087 2.409-.096 3.632.28.747.231 1.435.91 1.732 1.7a2.378 2.378 0 01-.338 2.316c.084.159.149.323.2.485.11.36.163.757.163 1.143s-.052.783-.163 1.143a2.66 2.66 0 01-.232.54c.245.517.155 1.094-.004 1.534-.162.434-.4.84-.704 1.203.078.203.11.417.11.621 0 .408-.13.835-.366 1.219-.482.782-1.44 1.421-2.792 1.421v-1.336c.813 0 1.3-.363 1.54-.748a1.1 1.1 0 00.174-.556c0-.16-.05-.22-.058-.227l-.511-.473.51-.472c.291-.269.587-.683.729-1.074.15-.417.062-.59-.008-.652l-.51-.473.51-.473c.063-.056.152-.187.223-.42.069-.224.108-.495.108-.777 0-.282-.039-.553-.108-.776-.072-.232-.16-.365-.223-.42l-.51-.474.51-.473c.51-.47.539-.952.386-1.362-.176-.468-.572-.792-.824-.871-.943-.29-2.09-.3-3.046-.22a13.82 13.82 0 00-1.58.23l-.02.003-.004.002a.778.778 0 01-.38-.009.733.733 0 01-.324-.186.653.653 0 01-.176-.313.62.62 0 01.02-.351c.727-2.042.8-4.234.21-6.313-.043-.149-.185-.288-.416-.341l-.378-.087c-.442-.103-.927.209-.963.692-.108 1.445-.345 2.872-.696 3.807-.25.67-.87 1.694-1.787 2.641-.92.951-2.193 1.884-3.773 2.282-.57.144-.895.529-.895.868v5.346c0 .347.317.688.798.735 1.867.183 2.795.708 3.596 1.16l.058.033c.39.218.714.395 1.12.524.4.127.91.218 1.646.218h5.052V21H8.662c-.874 0-1.545-.108-2.117-.291a7.2 7.2 0 01-1.4-.647l-.07-.04c-.727-.41-1.441-.813-2.985-.964C.985 18.948 0 18.123 0 16.993v-5.344c0-1.135.989-1.913 1.959-2.157 1.226-.31 2.272-1.051 3.078-1.884.808-.837 1.32-1.71 1.5-2.189.287-.768.514-2.056.618-3.46v-.001z" fill="#000"/></svg>
